modules/feathericon/icons/book.svg

<svg width="14" height="10" xmlns="http://www.w3.org/2000/svg"><path d="M13 9c1 0 1-1 1-1V1s0-1-1-1H8L7 1 6 0H1C0 0 0 1 0 1v7s0 1 1 1h5c0 .483.5 1 1 1s1-.517 1-1h5zM9 2h3v1H9V2zm0 2h3v1H9V4zm0 2h3v1H9V6zM2 2h3v1H2V2zm0 2h3v1H2V4zm0 2h3v1H2V6zM1 1h4l1 1v6H1V1zm7 1l1-1h4v6.99H8V2z" fill="#000" fill-rule="evenodd"/></svg>

<?xml version="1.0" encoding="UTF-8"?>
<svg width="14px" height="10px" viewBox="0 0 14 10" version="1.1" xmlns="http://www.w3.org/2000/svg" xmlns:xlink="http://www.w3.org/1999/xlink">
    <!-- Generator: sketchtool 48.1 (47250) - http://www.bohemiancoding.com/sketch -->
    <title>book</title>
    <desc>Created with sketchtool.</desc>
    <defs></defs>
    <g id="web-app" stroke="none" stroke-width="1" fill="none" fill-rule="evenodd">
        <g id="book" fill="#000000">
            <path d="M13,9 C14,9 14,8 14,8 L14,1 C14,1 14,4.19580317e-08 13,3.97903932e-13 C13,4.1958035e-08 8,0 8,0 L7,1 L6,0 C6,0 0.9999996,4.1958035e-08 1,3.97903932e-13 C2.84184568e-14,4.19580317e-08 2.84184568e-14,1 2.84184568e-14,1 L2.84184568e-14,8 C2.84184568e-14,8 5.22585447e-17,9 1,9 L6,9 C6,9.48326585 6.5,9.99938495 7,9.99938495 C7.5,9.99938495 8,9.48324916 8,9 L13,9 Z M9,2 L12,2 L12,3 L9,3 L9,2 Z M9,4 L12,4 L12,5 L9,5 L9,4 Z M9,6 L12,6 L12,7 L9,7 L9,6 Z M2,2 L5,2 L5,3 L2,3 L2,2 Z M2,4 L5,4 L5,5 L2,5 L2,4 Z M2,6 L5,6 L5,7 L2,7 L2,6 Z M1,1 L5,1 L6,2 L6,8 L1,8 L1,1 Z M8,2 L9,1 L13,1 L13,7.989605 L8,7.989605 L8,2 Z" id="Shape"></path>
        </g>
    </g>
</svg>
